X: 3258
M: 6/8
L: 1/8
K: G
vd/uc/ |\
vB2vB Bgf | e2e efg | ded dcB | BAA Adc |\
ug |\
vb2vg a2f | gfe dcB | cde dgB | BAA A2g |\
b2g af2 | gfe agf | bag fge | dgf ed"_D.C."c |]


